X:11
T:No.131 Stepping Stones
M:4/4
L:1/8
C:hornpipe
K:A
ABcd eAGA|fAgA aAGA|FAEA DACA|
[1(3BcB GB AGFE:|[2BdGB A2A,2||
ABcd eAAA|fAgA aAAA|FAEA DACA|
[1(3BcB GB AGFE:|[2BdGB Aefg||
agfe fedc|dcBA BAGB|dcBA cBAG|
BAGA Eefg|agfe fedc|dcBA BAGF|
(3EFE (3DED CEAc|[1BdGB Aefg:|[2BdGB A2A,2||
